assets/features/channel/east-asia/seicomar.svg

<svg width="80" height="80" viewBox="0 0 80 80" fill="none" xmlns="http://www.w3.org/2000/svg">
<rect width="80" height="80" rx="8" fill="#E07D2B"/>
<path d="M58.2815 48.6057C58.2815 48.6057 53.6593 59.8801 40.2074 60C27.4667 60 20 49.6252 20 40.1499C20 29.7751 28.4741 20 40.3852 20C52.4741 20 60 30.8546 60 38.3508C60 46.1469 52.0593 48.9655 45.7778 47.2864C52.8296 47.2864 53.9555 40.9895 53.9555 38.5307C53.9555 35.2923 50.8148 31.4543 54.6074 28.2159C55.3185 27.5562 54.963 27.3763 54.4889 27.5562C53.837 27.7961 50.2815 28.4558 48.9185 34.8126C48.2667 37.7511 47.3185 41.4093 43.8222 42.1889C43.8222 42.2489 47.0222 40.09 47.0222 35.5922C47.0222 30.3748 43.763 28.9955 43.763 24.6777C43.763 22.6387 45.1259 21.6192 45.1259 21.6192C45.1259 21.6192 46.0741 20.8396 44.0593 21.1994C40.8593 21.7391 35.6444 25.0375 35.6444 31.934C35.6444 34.4528 36.5926 36.2519 36.5926 38.6507C36.5926 43.0285 33.5704 43.2084 32.9185 43.2084C29.837 43.2084 26.5185 39.7301 28.4148 34.4528C28.4148 34.4528 27.763 34.8126 26.637 35.2924C25.3333 35.8921 24.8593 35.6522 23.8519 35.952C22.8444 36.3118 21.9556 36.7316 21.7778 37.2114C22.1333 37.2114 22.4889 37.2714 22.8444 37.3913C23.437 37.6912 24.2667 38.5907 24.563 39.3103C25.6296 41.8291 25.6296 45.4273 26.4 47.946C27.4667 51.4243 29.6593 54.7826 36.5333 54.7826C45.0074 54.7826 47.8518 48.1859 56.0889 48.1859C57.8074 48.3058 58.2815 48.6057 58.2815 48.6057Z" fill="white"/>
</svg>

<svg xmlns="http://www.w3.org/2000/svg" width="80" height="80" fill="none" viewBox="0 0 80 80"><rect width="80" height="80" fill="#e07d2b" rx="8"/><path fill="#fff" d="M58.282 48.606S53.659 59.88 40.207 60C27.467 60 20 49.625 20 40.15 20 29.775 28.474 20 40.385 20 52.475 20 60 30.855 60 38.35c0 7.797-7.94 10.615-14.222 8.936 7.052 0 8.178-6.297 8.178-8.755 0-3.239-3.141-7.077.651-10.315.712-.66.356-.84-.118-.66-.652.24-4.207.9-5.57 7.257-.652 2.938-1.6 6.596-5.097 7.376 0 .06 3.2-2.099 3.2-6.597 0-5.217-3.259-6.596-3.259-10.914 0-2.04 1.363-3.059 1.363-3.059s.948-.78-1.067-.42c-3.2.54-8.415 3.839-8.415 10.735 0 2.519.949 4.318.949 6.717 0 4.377-3.023 4.557-3.675 4.557-3.081 0-6.4-3.478-4.503-8.755 0 0-.652.36-1.778.84-1.304.6-1.778.36-2.785.659-1.008.36-1.896.78-2.074 1.26q.532 0 1.066.18c.593.3 1.423 1.199 1.719 1.918 1.067 2.52 1.067 6.117 1.837 8.636 1.067 3.478 3.26 6.837 10.133 6.837 8.474 0 11.319-6.597 19.556-6.597 1.718.12 2.193.42 2.193.42"/></svg>
